; FoamCutter G-Code
; .
; Machine:  
; Operating width [mm]:  721
; Settings (Voltage, Comment, ...):  28V
; .
; Foam Block:  
;    Material (Comment, ...):  XPS
;    Width [mm]:  525
;    Height [mm]:  60
;    Depth [mm]:  270
;    Left spacing to machine [mm]:  100
;    Front spacing to machine [mm]:  20
;    Lower spacing to machine [mm]:  0
;    Rotation around lower left corner [°]:  0
; .
G17
G21
G94
G90F100S90
G4P1
M3
G4P5
G4P1
M3
G4P5
G1F100X0.00Y0.00U0.00Z0.00
G1F100X0.00Y13.50U0.00Z13.50
G1F100X38.80Y13.50U38.80Z13.50
G1F100X39.94Y13.50U39.94Z13.50
G1F100X39.94Y25.39U39.94Z25.39
G1F100X42.03Y25.82U42.03Z25.82
G1F100X43.81Y26.50U43.81Z26.50
G1F100X45.34Y27.42U45.34Z27.42
G1F100X46.52Y28.48U46.52Z28.48
G1F100X47.39Y29.77U47.39Z29.77
G1F100X47.94Y31.20U47.94Z31.20
G1F100X48.12Y32.71U48.12Z32.71
G1F100X47.81Y34.91U47.81Z34.91
G1F100X46.90Y36.62U46.90Z36.62
G1F100X45.39Y37.92U45.39Z37.92
G1F100X43.31Y38.86U43.31Z38.86
G1F100X41.12Y39.41U41.12Z39.41
G1F100X39.10Y39.83U39.10Z39.83
G1F100X36.89Y40.67U36.89Z40.67
G1F100X36.38Y41.84U36.38Z41.84
G1F100X36.64Y42.60U36.64Z42.60
G1F100X37.41Y43.19U37.41Z43.19
G1F100X39.92Y43.70U39.92Z43.70
G1F100X42.09Y43.45U42.09Z43.45
G1F100X44.02Y42.80U44.02Z42.80
G1F100X45.50Y42.01U45.50Z42.01
G1F100X46.61Y41.28U46.61Z41.28
G1F100X47.16Y41.28U47.16Z41.28
G1F100X47.16Y46.82U47.16Z46.82
G1F100X43.90Y47.92U43.90Z47.92
G1F100X39.66Y48.38U39.66Z48.38
G1F100X37.37Y48.24U37.37Z48.24
G1F100X35.32Y47.80U35.32Z47.80
G1F100X33.55Y47.11U33.55Z47.11
G1F100X32.09Y46.22U32.09Z46.22
G1F100X30.94Y45.13U30.94Z45.13
G1F100X30.11Y43.90U30.11Z43.90
G1F100X29.60Y42.56U29.60Z42.56
G1F100X29.43Y41.14U29.43Z41.14
G1F100X29.76Y38.83U29.76Z38.83
G1F100X30.73Y37.01U30.73Z37.01
G1F100X32.35Y35.63U32.35Z35.63
G1F100X34.61Y34.64U34.61Z34.64
G1F100X36.72Y34.12U36.72Z34.12
G1F100X38.69Y33.70U38.69Z33.70
G1F100X40.66Y32.96U40.66Z32.96
G1F100X41.04Y32.48U41.04Z32.48
G1F100X41.17Y31.81U41.17Z31.81
G1F100X40.89Y30.97U40.89Z30.97
G1F100X40.06Y30.39U40.06Z30.39
G1F100X37.52Y29.94U37.52Z29.94
G1F100X34.91Y30.26U34.91Z30.26
G1F100X32.75Y31.03U32.75Z31.03
G1F100X31.01Y31.97U31.01Z31.97
G1F100X29.90Y32.79U29.90Z32.79
G1F100X29.34Y32.79U29.34Z32.79
G1F100X29.34Y27.01U29.34Z27.01
G1F100X32.90Y25.78U32.90Z25.78
G1F100X37.48Y25.25U37.48Z25.25
G1F100X39.94Y25.39U39.94Z25.39
G1F100X39.94Y13.50U39.94Z13.50
G1F100X66.86Y13.50U66.86Z13.50
G1F100X66.86Y25.86U66.86Z25.86
G1F100X63.46Y25.86U63.46Z25.86
G1F100X63.46Y28.18U63.46Z28.18
G1F100X62.20Y27.12U62.20Z27.12
G1F100X60.71Y26.19U60.71Z26.19
G1F100X58.92Y25.50U58.92Z25.50
G1F100X56.49Y25.27U56.49Z25.27
G1F100X53.83Y25.76U53.83Z25.76
G1F100X51.66Y27.22U51.66Z27.22
G1F100X50.22Y29.43U50.22Z29.43
G1F100X49.74Y32.14U49.74Z32.14
G1F100X49.98Y34.35U49.98Z34.35
G1F100X50.71Y36.09U50.71Z36.09
G1F100X51.90Y37.43U51.90Z37.43
G1F100X53.52Y38.47U53.52Z38.47
G1F100X55.56Y39.23U55.56Z39.23
G1F100X57.95Y39.72U57.95Z39.72
G1F100X63.50Y40.26U63.50Z40.26
G1F100X63.50Y40.38U63.50Z40.38
G1F100X63.16Y41.91U63.16Z41.91
G1F100X62.16Y42.89U62.16Z42.89
G1F100X60.49Y43.41U60.49Z43.41
G1F100X58.15Y43.58U58.15Z43.58
G1F100X55.32Y43.14U55.32Z43.14
G1F100X52.16Y42.02U52.16Z42.02
G1F100X51.57Y42.02U51.57Z42.02
G1F100X51.57Y47.31U51.57Z47.31
G1F100X54.85Y48.00U54.85Z48.00
G1F100X59.42Y48.40U59.42Z48.40
G1F100X64.31Y47.93U64.31Z47.93
G1F100X66.18Y47.34U66.18Z47.34
G1F100X67.67Y46.52U67.67Z46.52
G1F100X68.80Y45.45U68.80Z45.45
G1F100X69.61Y44.14U69.61Z44.14
G1F100X70.09Y42.58U70.09Z42.58
G1F100X70.25Y40.77U70.25Z40.77
G1F100X70.25Y33.31U70.25Z33.31
G1F100X63.46Y33.31U63.46Z33.31
G1F100X63.46Y36.14U63.46Z36.14
G1F100X60.65Y35.84U60.65Z35.84
G1F100X58.54Y35.34U58.54Z35.34
G1F100X57.14Y34.40U57.14Z34.40
G1F100X56.65Y32.71U56.65Z32.71
G1F100X56.85Y31.41U56.85Z31.41
G1F100X57.48Y30.59U57.48Z30.59
G1F100X58.50Y30.16U58.50Z30.16
G1F100X59.93Y30.01U59.93Z30.01
G1F100X61.76Y30.42U61.76Z30.42
G1F100X63.46Y31.58U63.46Z31.58
G1F100X63.46Y33.31U63.46Z33.31
G1F100X63.46Y33.31U63.46Z33.31
G1F100X70.25Y33.31U70.25Z33.31
G1F100X70.25Y25.86U70.25Z25.86
G1F100X66.86Y25.86U66.86Z25.86
G1F100X66.86Y13.50U66.86Z13.50
G1F100X78.72Y13.50U78.72Z13.50
G1F100X78.72Y25.86U78.72Z25.86
G1F100X75.31Y25.86U75.31Z25.86
G1F100X75.31Y47.78U75.31Z47.78
G1F100X82.14Y47.78U82.14Z47.78
G1F100X82.14Y45.36U82.14Z45.36
G1F100X85.30Y47.58U85.30Z47.58
G1F100X86.88Y48.18U86.88Z48.18
G1F100X88.64Y48.38U88.64Z48.38
G1F100X90.53Y48.15U90.53Z48.15
G1F100X92.18Y47.43U92.18Z47.43
G1F100X93.52Y46.24U93.52Z46.24
G1F100X94.50Y44.58U94.50Z44.58
G1F100X98.22Y47.40U98.22Z47.40
G1F100X99.98Y48.14U99.98Z48.14
G1F100X101.76Y48.38U101.76Z48.38
G1F100X104.49Y47.90U104.49Z47.90
G1F100X105.61Y47.29U105.61Z47.29
G1F100X106.54Y46.43U106.54Z46.43
G1F100X107.92Y43.92U107.92Z43.92
G1F100X108.38Y40.13U108.38Z40.13
G1F100X108.38Y25.86U108.38Z25.86
G1F100X101.51Y25.86U101.51Z25.86
G1F100X101.51Y36.81U101.51Z36.81
G1F100X101.45Y39.54U101.45Z39.54
G1F100X101.10Y41.36U101.10Z41.36
G1F100X100.19Y42.38U100.19Z42.38
G1F100X98.46Y42.70U98.46Z42.70
G1F100X96.92Y42.36U96.92Z42.36
G1F100X95.26Y41.40U95.26Z41.40
G1F100X95.26Y25.86U95.26Z25.86
G1F100X88.39Y25.86U88.39Z25.86
G1F100X88.39Y36.81U88.39Z36.81
G1F100X88.32Y39.53U88.32Z39.53
G1F100X87.96Y41.36U87.96Z41.36
G1F100X87.05Y42.38U87.05Z42.38
G1F100X85.34Y42.70U85.34Z42.70
G1F100X83.70Y42.31U83.70Z42.31
G1F100X82.14Y41.40U82.14Z41.40
G1F100X82.14Y25.86U82.14Z25.86
G1F100X78.72Y25.86U78.72Z25.86
G1F100X78.72Y13.50U78.72Z13.50
G1F100X116.85Y13.50U116.85Z13.50
G1F100X116.85Y17.81U116.85Z17.81
G1F100X113.44Y17.81U113.44Z17.81
G1F100X113.44Y47.78U113.44Z47.78
G1F100X120.27Y47.78U120.27Z47.78
G1F100X120.27Y45.49U120.27Z45.49
G1F100X123.33Y47.58U123.33Z47.58
G1F100X125.02Y48.18U125.02Z48.18
G1F100X126.94Y48.38U126.94Z48.38
G1F100X128.74Y48.20U128.74Z48.20
G1F100X130.32Y47.63U130.32Z47.63
G1F100X131.69Y46.68U131.69Z46.68
G1F100X132.84Y45.36U132.84Z45.36
G1F100X133.75Y43.71U133.75Z43.71
G1F100X134.41Y41.78U134.41Z41.78
G1F100X134.93Y37.12U134.93Z37.12
G1F100X127.94Y36.98U127.94Z36.98
G1F100X127.94Y36.98U127.94Z36.98
G1F100X127.69Y39.74U127.69Z39.74
G1F100X126.95Y41.63U126.95Z41.63
G1F100X125.69Y42.71U125.69Z42.71
G1F100X123.88Y43.07U123.88Z43.07
G1F100X122.05Y42.78U122.05Z42.78
G1F100X120.27Y41.90U120.27Z41.90
G1F100X120.27Y30.87U120.27Z30.87
G1F100X121.47Y30.54U121.47Z30.54
G1F100X123.02Y30.44U123.02Z30.44
G1F100X125.20Y30.85U125.20Z30.85
G1F100X126.73Y32.07U126.73Z32.07
G1F100X127.64Y34.12U127.64Z34.12
G1F100X127.94Y36.98U127.94Z36.98
G1F100X134.93Y37.12U134.93Z37.12
G1F100X134.76Y34.62U134.76Z34.62
G1F100X134.26Y32.38U134.26Z32.38
G1F100X133.43Y30.39U133.43Z30.39
G1F100X132.26Y28.65U132.26Z28.65
G1F100X130.85Y27.24U130.85Z27.24
G1F100X129.29Y26.23U129.29Z26.23
G1F100X127.57Y25.63U127.57Z25.63
G1F100X125.69Y25.43U125.69Z25.43
G1F100X122.84Y25.80U122.84Z25.80
G1F100X120.27Y26.95U120.27Z26.95
G1F100X120.27Y17.81U120.27Z17.81
G1F100X116.85Y17.81U116.85Z17.81
G1F100X116.85Y13.50U116.85Z13.50
G1F100X142.01Y13.50U142.01Z13.50
G1F100X142.01Y25.86U142.01Z25.86
G1F100X138.60Y25.86U138.60Z25.86
G1F100X138.60Y56.23U138.60Z56.23
G1F100X145.43Y56.23U145.43Z56.23
G1F100X145.43Y25.86U145.43Z25.86
G1F100X142.01Y25.86U142.01Z25.86
G1F100X142.01Y13.50U142.01Z13.50
G1F100X160.43Y13.50U160.43Z13.50
G1F100X160.43Y25.36U160.43Z25.36
G1F100X158.97Y25.46U158.97Z25.46
G1F100X156.41Y26.01U156.41Z26.01
G1F100X154.21Y26.94U154.21Z26.94
G1F100X152.37Y28.24U152.37Z28.24
G1F100X150.92Y29.88U150.92Z29.88
G1F100X149.89Y31.83U149.89Z31.83
G1F100X149.27Y34.10U149.27Z34.10
G1F100X149.06Y36.69U149.06Z36.69
G1F100X149.25Y39.24U149.25Z39.24
G1F100X149.83Y41.52U149.83Z41.52
G1F100X150.80Y43.52U150.80Z43.52
G1F100X152.15Y45.26U152.15Z45.26
G1F100X153.84Y46.66U153.84Z46.66
G1F100X155.85Y47.66U155.85Z47.66
G1F100X158.16Y48.26U158.16Z48.26
G1F100X160.78Y48.46U160.78Z48.46
G1F100X163.14Y48.29U163.14Z48.29
G1F100X165.19Y47.78U165.19Z47.78
G1F100X166.93Y46.94U166.93Z46.94
G1F100X168.35Y45.75U168.35Z45.75
G1F100X169.46Y44.24U169.46Z44.24
G1F100X170.25Y42.45U170.25Z42.45
G1F100X170.73Y40.36U170.73Z40.36
G1F100X170.89Y37.98U170.89Z37.98
G1F100X170.89Y35.52U170.89Z35.52
G1F100X160.43Y35.52U160.43Z35.52
G1F100X160.43Y39.64U160.43Z39.64
G1F100X155.90Y39.64U155.90Z39.64
G1F100X156.26Y41.47U156.26Z41.47
G1F100X157.13Y42.88U157.13Z42.88
G1F100X158.47Y43.77U158.47Z43.77
G1F100X160.25Y44.07U160.25Z44.07
G1F100X161.95Y43.79U161.95Z43.79
G1F100X163.15Y42.94U163.15Z42.94
G1F100X163.87Y41.55U163.87Z41.55
G1F100X164.15Y39.64U164.15Z39.64
G1F100X160.43Y39.64U160.43Z39.64
G1F100X160.43Y35.52U160.43Z35.52
G1F100X160.43Y35.52U160.43Z35.52
G1F100X155.91Y35.52U155.91Z35.52
G1F100X156.56Y32.97U156.56Z32.97
G1F100X158.00Y31.34U158.00Z31.34
G1F100X160.05Y30.47U160.05Z30.47
G1F100X162.61Y30.21U162.61Z30.21
G1F100X164.95Y30.47U164.95Z30.47
G1F100X167.06Y31.17U167.06Z31.17
G1F100X168.61Y31.97U168.61Z31.97
G1F100X169.78Y32.73U169.78Z32.73
G1F100X170.50Y32.73U170.50Z32.73
G1F100X170.50Y27.09U170.50Z27.09
G1F100X168.97Y26.47U168.97Z26.47
G1F100X167.06Y25.89U167.06Z25.89
G1F100X164.77Y25.44U164.77Z25.44
G1F100X161.89Y25.27U161.89Z25.27
G1F100X160.43Y25.36U160.43Z25.36
G1F100X160.43Y13.50U160.43Z13.50
G1F100X208.63Y13.50U208.63Z13.50
G1F100X208.63Y80.00U208.63Z80.00
G4P1
M5
